X:210
T:Sweet Richard
O:No 210 Page 103 William Clarke of Feltwell
M:2/4
L:1/8
K:G
D>GG>E|F>GA>F|G>AB>G|A>Bc>A|B>cd>B|c>BA>G|F>DE>F|G2G2::g2ge|f2fd|e2ec|d2d2|g2ge|f2fd|e>ge>c|d2d2|ece2|dBd2|c>BA>G|FGA2|B2BG|cBAG|FDEF|G2G2:|

